packages/ui/public/icons/chat.svg

<svg width="21" height="21" viewBox="0 0 21 21" fill="none" xmlns="http://www.w3.org/2000/svg">
<path d="M5.70435 8.77002H5.71435M10.2043 8.77002H10.2143M14.7043 8.77002H14.7143M5.20435 16.27V18.6055C5.20435 19.1384 5.20435 19.4048 5.31358 19.5416C5.40857 19.6606 5.55262 19.7299 5.70489 19.7297C5.87998 19.7295 6.08802 19.5631 6.50411 19.2302L8.88955 17.3218C9.37685 16.932 9.62055 16.7371 9.89185 16.5985C10.1325 16.4755 10.3887 16.3856 10.6535 16.3313C10.952 16.27 11.264 16.27 11.888 16.27H14.4043C16.0845 16.27 16.9245 16.27 17.5663 15.943C18.1308 15.6554 18.5897 15.1965 18.8773 14.632C19.2043 13.9902 19.2043 13.1502 19.2043 11.47V6.07002C19.2043 4.38986 19.2043 3.54978 18.8773 2.90805C18.5897 2.34356 18.1308 1.88462 17.5663 1.597C16.9245 1.27002 16.0845 1.27002 14.4043 1.27002H6.00435C4.32419 1.27002 3.48411 1.27002 2.84238 1.597C2.27789 1.88462 1.81895 2.34356 1.53133 2.90805C1.20435 3.54978 1.20435 4.38986 1.20435 6.07002V12.27C1.20435 13.2 1.20435 13.665 1.30657 14.0465C1.58397 15.0817 2.39262 15.8904 3.42789 16.1678C3.80939 16.27 4.27438 16.27 5.20435 16.27ZM6.20435 8.77002C6.20435 9.04612 5.98049 9.27002 5.70435 9.27002C5.42821 9.27002 5.20435 9.04612 5.20435 8.77002C5.20435 8.49392 5.42821 8.27002 5.70435 8.27002C5.98049 8.27002 6.20435 8.49392 6.20435 8.77002ZM10.7043 8.77002C10.7043 9.04612 10.4804 9.27002 10.2043 9.27002C9.92825 9.27002 9.70435 9.04612 9.70435 8.77002C9.70435 8.49392 9.92825 8.27002 10.2043 8.27002C10.4804 8.27002 10.7043 8.49392 10.7043 8.77002ZM15.2043 8.77002C15.2043 9.04612 14.9804 9.27002 14.7043 9.27002C14.4282 9.27002 14.2043 9.04612 14.2043 8.77002C14.2043 8.49392 14.4282 8.27002 14.7043 8.27002C14.9804 8.27002 15.2043 8.49392 15.2043 8.77002Z" stroke="#F3EFF3" stroke-width="2" stroke-linecap="round" stroke-linejoin="round"/>
</svg>

<svg width="21" height="21" fill="none" xmlns="http://www.w3.org/2000/svg"><path d="M5.704 8.77h.01m4.49 0h.01m4.49 0h.01m-9.51 7.5v2.335c0 .533 0 .8.11.937a.5.5 0 0 0 .39.188c.176 0 .384-.167.8-.5l2.386-1.908c.487-.39.73-.585 1.002-.723.24-.123.497-.213.761-.268.299-.061.611-.061 1.235-.061h2.516c1.68 0 2.52 0 3.162-.327a3 3 0 0 0 1.311-1.311c.327-.642.327-1.482.327-3.162v-5.4c0-1.68 0-2.52-.327-3.162a3 3 0 0 0-1.31-1.311c-.643-.327-1.483-.327-3.163-.327h-8.4c-1.68 0-2.52 0-3.162.327a3 3 0 0 0-1.31 1.311c-.328.642-.328 1.482-.328 3.162v6.2c0 .93 0 1.395.103 1.777a3 3 0 0 0 2.12 2.12c.382.103.847.103 1.777.103Zm1-7.5a.5.5 0 1 1-1 0 .5.5 0 0 1 1 0Zm4.5 0a.5.5 0 1 1-1 0 .5.5 0 0 1 1 0Zm4.5 0a.5.5 0 1 1-1 0 .5.5 0 0 1 1 0Z" stroke="#F3EFF3" stroke-width="2" stroke-linecap="round" stroke-linejoin="round"/></svg>
